svgs/sharp-regular/hand-lizard.svg

<svg xmlns="http://www.w3.org/2000/svg" viewBox="0 0 512 512"><!--! Font Awesome Pro 6.6.0 by @fontawesome - https://fontawesome.com License - https://fontawesome.com/license (Commercial License) Copyright 2024 Fonticons, Inc. --><path d="M0 64l24 0 320 0 11.7 0 7.2 9.2 144 184 5.1 6.5 0 8.3 0 152 0 24-48 0 0-24 0-143.7L332.3 112 48 112l0 48 192 0c35.3 0 64 28.7 64 64s-28.7 64-64 64l-128 0 0 48 176 0 6.9 0 5.8 3.6 64 40 11.3 7 0 13.3 0 24 0 24-48 0 0-24 0-10.7L281.1 384 88 384l-24 0 0-24 0-96 0-24 24 0 152 0c8.8 0 16-7.2 16-16s-7.2-16-16-16L24 208 0 208l0-24L0 88 0 64z"/></svg>

<svg xmlns="http://www.w3.org/2000/svg" viewBox="0 0 512 512"><!--! Font Awesome Pro 6.4.0 by @fontawesome - https://fontawesome.com License - https://fontawesome.com/license (Commercial License) Copyright 2023 Fonticons, Inc. --><path d="M0 64H24 344h11.7l7.2 9.2 144 184 5.1 6.5V272 424v24H464V424 280.3L332.3 112H48v48H240c35.3 0 64 28.7 64 64s-28.7 64-64 64H112v48H288h6.9l5.8 3.6 64 40 11.3 7V400v24 24H328V424 413.3L281.1 384H88 64V360 264 240H88 240c8.8 0 16-7.2 16-16s-7.2-16-16-16H24 0V184 88 64z"/></svg>
